!!!!SEGMENT: pl-wtm--a-43-184-99--001-002_stojowski-zygmunt--piec-piesni-op-11-no-2-wedrowalo-sobie-slonko.krn
!!!cenid: 18xx:4452
!!!COM: Stojowski, Zygmunt
!!!COM-rismID: pe41019736
!!!CDT: 1870-1946
!!!CNT: Polish
!!!GTL: Pięć pięśni op. 11
!!!OTL: No. 2. Wędrowało sobie słonko
!!!OMV: 002
!!!PDT: 1895
!!!AGN: Secular: Song
!!!YEC: Copyright 2022 Narodowy Instytut Fryderyka Chopina (https://polishscores.org)
!!!YEM: License CC-BY-4.0 (https://creativecommons.org/licenses/by/4.0)
!!!SMS-siglum: PL-Wtm
!!!SMS-shelfmark: A-43.184/99
!!!SMS-variant:
!!!SMS-altvar:
!!!SMS-shelfwork: 001-002 G
!!!NIFC-rismSourceID: 1001165241
!!!NIFC-rismChildID: 1001165241
!!!NIFC-islandoraID: pl-wtm:43123
!!!URL-pdf-islandora: https://repozytorium.nifc.pl/islandora/object/pl-wtm%3A43123/datastream/PDF/view
!!!URL-scan: https://polish.musicsources.pl/pl/lokalizacje/galeria/druki-muzyczne/22419/7 @EN{Scan on Polish Music Sources Website} @PL{Skany w portalu Dziedzictwo Muzyki Polskiej w otwartym dostępie}
!!!IIIF:
!!!ONB-nifc:
!!!AIN: 1 piano 1 vox
!!!key: E
**kern	**kern	**dynam	**kern	**text	**text	**dynam
*part2	*part2	*part2	*part1	*part1	*part1	*part1
*staff3	*staff2	*	*staff1	*staff1	*staff1	*
*I"PIANO.	*I"PIANO.	*	*I"CANTO.	*	*	*
*I'[pf]	*I'[pf]	*	*I'[V]	*	*	*
*ICklav	*ICklav	*	*ICvox	*	*	*
*Ipiano	*Ipiano	*	*Ivox	*	*	*
*clefF4	*clefG2	*	*clefG2	*	*	*
*k[f#c#g#d#]	*k[f#c#g#d#]	*	*k[f#c#g#d#]	*	*	*
*E:	*E:	*	*E:	*	*	*
*M3/4	*M3/4	*	*M3/4	*	*	*
=1	=1	=1	=1	=1	=1	=1
*^	*^	*	*	*	*	*
*clefG2	*	*	*	*	*	*	*	*
!	!	!	!	!	!LO:TX:a:B:t=Allegretto moderato, quasi andantino.	!	!	!
(4.b/	[2.e\	(8.gg#/L	4ee\	p	2.r	.	.	.
.	.	16gg#/Jk	.	.	.	.	.	.
.	.	4.bb/	[2dd#\	.	.	.	.	.
8a/	.	.	.	.	.	.	.	.
4g#/)	.	.	.	.	.	.	.	.
.	.	8gg#/	.	.	.	.	.	.
=2	=2	=2	=2	=2	=2	=2	=2	=2
(2a/	2.e\]	4ff#/	(8dd#\L]	.	2.r	.	.	.
.	.	.	8cc#\J	.	.	.	.	.
.	.	4.gg#/	2b\)	.	.	.	.	.
4g#/)	.	.	.	.	.	.	.	.
.	.	8ee/)	.	.	.	.	.	.
*clefF4	*	*	*	*	*	*	*	*
=3	=3	=3	=3	=3	=3	=3	=3	=3
4ryy	(4f#\	(8.cc#/L	(2a\	<	2.r	.	.	.
.	.	16cc#/Jk	.	.	.	.	.	.
2e/	(4c#\)	4.ee/	.	[	.	.	.	.
.	4C#\)	.	[4g#\)	.	.	.	.	.
.	.	8cc#/	.	.	.	.	.	.
=4	=4	=4	=4	=4	=4	=4	=4	=4
*	*^	*	*	*	*	*	*	*
4ryy	(<4E\ 4dn	2ryy	4b/	(8g#\L]	>	4r	.	.	.
.	.	.	.	8f#\J	.	.	.	.	.
!	!	!	!LO:TX:a:i:t=rit.	!	!	!LO:TX:a:i:t=rit.	!	!	!
2A/	2A\	.	2c#/) 2cc#	4e\	.	4r	.	.	.
.	.	4F#;\)	.	4f#;\)	]	4r;	.	.	.
*v	*v	*v	*	*	*	*	*	*	*
*	*v	*v	*	*	*	*	*
!!LO:LB:g=original	!	!	!	!	!	!
=5	=5	=5	=5	=5	=5	=5
!	!LO:TX:a:i:t=a tempo, pochissimo piu lento	!	!LO:TX:a:i:t=a tempo, pochissimo piu lento	!	!	!
2.E\	2.B/ [>2.e 2.g#	.	8.g#/	Wę-	Le	.
.	.	.	16g#/	-dro-	so-	.
.	.	.	4.b\	-wa-	-leil	.
.	.	.	8g#/	-ło	em-	.
=6	=6	=6	=6	=6	=6	=6
*	*^	*	*	*	*	*
(8F#\L	(4A/ 4f#	(8e\L]	.	8f#/	so-	-plit	.
8BB\J	.	8d#\J)	.	8f#/	-bie	la	.
[4E\)	[4B/) [4e [4g#	2ryy	.	4g#/	słon-	vou-	.
8E\]	8B/] 8e] 8g#]	.	.	8g#/	-ko	-te	.
8r	8r	.	.	8r	.	.	.
*	*v	*v	*	*	*	*	*
=7	=7	=7	=7	=7	=7	=7
*	*	*	*^	*	*	*
*	*	*	*Xtuplet	*tuplet	*	*	*
(4C#/	4c#/ 4e 4g#	.	12g#/L	12g#\	U-	De	.
.	.	.	12f#/J	12f#\	.	ses	.
.	.	.	12g#/	12g#\	-śmiech-	flots	.
4GG#/	2B/ 2d# 2g#	.	(4.b\	2ryy	-nię-	d'or	.
4AA/	.	.	.	.	.	.	.
.	.	.	8g#/)	.	-te	.	.
*	*	*	*v	*v	*	*	*
!!LO:LB:g=original	!	!	!	!	!	!
=8	=8	=8	=8	=8	=8	=8
*	*^	*	*	*	*	*
*	*	*	*	*Xbrackettup	*	*	*
4BB/	4f#/	(8B\L 8d#	.	12f#/L	ja-	qu'il	.
.	.	.	.	12e/J	.	.	.
.	.	8A\J) 8c#	.	.	.	.	.
.	.	.	.	12f#/	-sne	va	.
[4E\	[4G#/ [>4B [4g#	2ryy	.	8g#/L	zło-	se-	.
.	.	.	.	8a/J	.	.	.
8E\])	8G#/] 8B] 8g#]	.	.	8b\	-te	-mant,	.
8r	8r	.	.	8r	.	.	.
*	*v	*v	*	*	*	*	*
=9	=9	=9	=9	=9	=9	=9
2.G#\ 2.B	2.e/ 2.b	.	8b\	Szło	Il	.
.	.	.	8b\	nad	che-	.
.	.	.	4.ee\	ga-	-mine	.
.	.	.	8ee\	-jem	et	.
=10	=10	=10	=10	=10	=10	=10
!	!	!	!LO:TX:t=P:problem: zakreślone ołówkiem	!	!	!
4G#\	4d#/ 4f# 4b#X	.	8dd#\	szło	dans	.
.	.	.	8dd#\	nad	sa	.
2A\	2c#/ 2e 2cc#	.	4.cc#\	łą-	rou-	.
.	.	.	8cc#\	-ką	-te	.
!!LO:PB:g=original	!	!	!	!	!	!
=11	=11	=11	=11	=11	=11	=11
*^	*	*	*	*	*	*
!	!	!LO:TX:b:i:t=rit.	!	!LO:TX:t=P:problem: takt zakreślono ołówkiem, określenie wolniej także ołówkiem	!	!	!
!	!	!	!	!LO:TX:a:t=wolniej:color=grey	!	!	!
2G#/	2C#\	2e/ 2cc#	.	8cc#\	Na-	Ren-	.
.	.	.	.	8dd#\	-pot-	-contre	.
!	!	!	!	!LO:TX:a:i:t=rit.	!	!	!
.	.	.	.	8b\	-ka-	un	.
.	.	.	.	8b\	-ło	en-	.
[>4D#X/	4ryy	[4c#/ [4f##X	.	8.a/	w łzach	-fant	.
.	.	.	.	16b\	sie-	pleu-	.
=12	=12	=12	=12	=12	=12	=12	=12
*	*	*^	*	*	*	*	*
*	*Xtuplet	*	*	*	*	*	*	*
12D#/L]	12ryy	4c#/_ 4f##_	4ryy	pp	(2a/	-ro-	-rant	.
12GG#/	[6GG#\	.	.	.	.	.	.	.
[<12D#X/J	.	.	.	.	.	.	.	.
*	*	*	*Xtuplet	*	*	*	*	*
2GG#/] 2D#] 2G#	2ryy	12c#/L] 12f##]	12ryy	.	.	.	.	.
.	.	12B#X/	[6B#\	.	.	.	.	.
.	.	[<12d#X/J	.	.	.	.	.	.
.	.	4B#/] 4d#] 4g#	4ryy	.	4g#/)	-tę	.	.
*v	*v	*	*	*	*	*	*	*
=13	=13	=13	=13	=13	=13	=13	=13
*	*	*^	*	*	*	*	*
!	!LO:TX:a:i:t=a tempo	!	!	!	!LO:TX:a:i:t=a tempo	!	!	!
2.C#\ 2.G#	(8.g#/L	2.e\	4ryy	.	2.r	.	.	.
.	[<16g#/Jk	.	.	.	.	.	.	.
.	4.ee/	.	2g#\]	.	.	.	.	.
.	8cc#/	.	.	.	.	.	.	.
*	*	*v	*v	*	*	*	*	*
=14	=14	=14	=14	=14	=14	=14	=14
4E\ 4dn	4b/	(8g#\L	.	2.r	.	.	.
.	.	8f#\J	.	.	.	.	.
2A\ 2c#	4.cc#/	2e\)	.	.	.	.	.
.	8a/)	.	.	.	.	.	.
!!LO:LB:g=original	!	!	!	!	!	!	!
=15	=15	=15	=15	=15	=15	=15	=15
*^	*	*	*	*	*	*	*
4ryy	4B\	(8.f#/L	(2dn\	.	4r	.	.	.
.	.	16f#/Jk	.	.	.	.	.	.
[2A/	4F#\	4.a/	.	.	4r	.	.	.
.	4FF#\	.	4c#\)	.	8f#/	Ten	L'en-	.
.	.	8f#/	.	.	8f#/	się	-fant	.
=16	=16	=16	=16	=16	=16	=16	=16	=16
4A/]	4AA\	4e/	8c#\L	.	4gn/	ża-	pleu-	.
.	.	.	8B\J	.	.	.	.	.
[2Dn\	2ryy	[2f#/)	4A\	.	4f#/	-li:	-re:	.
!	!	!LO:TX:a:i:t=poco rit.	!	!	!	!	!	!
.	.	.	8.A\L	.	4r	.	.	.
.	.	.	(16A\Jk	.	.	.	.	.
*v	*v	*	*	*	*	*	*	*
*	*v	*v	*	*	*	*	*
=17	=17	=17	=17	=17	=17	=17
4D\]	2.B#X/) 2.f#]	.	4r	.	.	.
8.D#X\L	.	.	4r	.	.	.
[16D#\Jk	.	.	.	.	.	.
4D#\]	.	.	8.g#X/	„Tak	Gai	.
.	.	.	16g#/	we-	so-	.
=18	=18	=18	=18	=18	=18	=18
[4C#/	8r	.	[<4ee\	-so-	-leil	.
!	!LO:TX:a:i:t=a tempo	!	!	!	!	!
.	4G#/ 4e	.	.	.	.	.
!	!	!	!LO:TX:a:i:t=a tempo	!	!	!
8C#/]	.	.	4ee\]	-ło	.	.
8r	4G#/ 4e	.	.	.	.	.
4r	.	.	8dd#\	świe-	tout	.
.	[8G#/ [8e	.	8dd#\	-cisz	s'a-	.
!!LO:LB:g=original	!	!	!	!	!	!
=19	=19	=19	=19	=19	=19	=19
8CC#/	8G#/] 8e]	.	4cc#\	świa-	-nime	.
8r	4G#/ 4e	.	.	.	.	.
4r	.	.	4cc#\	-tu	a	.
.	4G#/ 4e	.	.	.	.	.
4r	.	.	8.b\	słon-	ton	.
.	[8G#/ [8e	.	.	.	.	.
.	.	.	16b\	-ko	sou-	.
=20	=20	=20	=20	=20	=20	=20
8C#/	8G#/] 8e]	.	4cc#\	mo-	-ri-	.
4G#\ 4e	8r	.	.	.	.	.
.	4r	.	4g#/	-je	-re	.
4G#\ 4e	.	.	.	.	.	.
!	!LO:TX:a:i:t=espress.	!	!	!	!	!
.	(>8.B/L	.	4r	.	.	.
[8G#\ [8e	.	.	.	.	.	.
.	16B/Jk	.	.	.	.	.
=21	=21	=21	=21	=21	=21	=21
8G#\] 8e]	4c#/	.	4r	.	.	.
4G#\ 4e	.	.	.	.	.	.
.	8G#/)	.	4r	.	.	.
4G#\ 4e	8r	.	.	.	.	.
.	8r	.	8.g#/	U-	De	.
[8C#\ 8G# 8c#	[8e/ [8g#	.	.	.	.	.
.	.	.	16g#/	-śmie-	tes	.
!!LO:LB:g=original	!	!	!	!	!	!
=22	=22	=22	=22	=22	=22	=22
*	*^	*	*	*	*	*
8C#/]	4r	8e/] 8g#]	.	4ee\	-cha-	feux	.
4G#\ 4e	.	4g#\	.	.	.	.	.
.	(8.ee/L	.	.	4ee\	-mi	vi-	.
4G#\ 4e	.	4g#\	.	.	.	.	.
.	16ee/Jk	.	.	.	.	.	.
.	4gg#/	.	.	8dd#\	sy-	-vent	.
[8G#\ [8e	.	[8g#\	.	8dd#\	-piesz	les	.
=23	=23	=23	=23	=23	=23	=23	=23
8G#\] 8e]	4ee/)	8g#\]	.	[<4cc#\	w ko-	fleurs	.
4G#\ 4e	.	4g#\	.	.	.	.	.
.	4r	.	.	8cc#\]	-ło	.	.
4C#\ 4G#	.	4e\ 4g#	.	8r	.	.	.
.	8ryy	.	.	8dd#\	Gdy	Et	.
[8C#\ [8G#	[8e/ [8g#	8ryy	.	8ee\	ja	moi	.
*	*v	*v	*	*	*	*	*
=24	=24	=24	=24	=24	=24	=24
!	!LO:TX:a:i:t=poco rit.	!	!LO:TX:a:i:t=poco rit.	!	!	!
8C#\] 8G#]	8e/] 8g#]	.	4.gg#\	smu-	seul	.
8r	8r	.	.	.	.	.
!	!LO:TX:a:i:t=a tempo	!	!	!	!	!
2FF#:/ 2A:	2e/ 2cc#	.	.	.	.	.
!	!	!	!LO:TX:a:i:t=a tempo	!	!	!
.	.	.	8a/	-tny	he-	.
.	.	.	8g#/	we	-las	.
.	.	.	8f#/	łzach	sou-	.
!!LO:PB:g=original	!	!	!	!	!	!
=25	=25	=25	=25	=25	=25	=25
*^	*^	*	*	*	*	*
!	!	!LO:TX:b:i:t=espress.	!	!	!	!	!	!
(4D#/	2GG#\	(8.b#X/L	(4a\	.	4a/	sto-	-pi-	.
.	.	16b#/Jk	.	.	.	.	.	.
2B#X/)	.	4.ee/	8g#\L	.	8g#/	-ję	-re!	.
.	.	.	8f##X\J	.	8r	.	.	.
!	!	!LO:TX:b:i:t=poco rit.	!LO:N:n=1:acc=n# 	!	!	!	!	!
.	(4G#\	.	4f#X\)	.	4r	.	.	.
.	.	8b#/	.	.	.	.	.	.
*v	*v	*	*	*	*	*	*	*
=26	=26	=26	=26	=26	=26	=26	=26
4F#\	4c#/ 4a	8f#\L	.	4r	.	.	.
.	.	8e\J	.	.	.	.	.
4G#;\)	4B#X;/) 4b#X	8e;\L	.	4r;	.	.	.
.	.	8d#;\J	.	.	.	.	.
4r	4r	4ryy	.	8g#/	Gdy	Gai	.
.	.	.	.	8a/	ja	so-	.
=27	=27	=27	=27	=27	=27	=27	=27
*^	*	*	*	*^	*	*	*
4E#X/	2AA\	4r	2.c#\	.	4.cc#/	4cc#\	smu-	-leil	.
!	!	!	!	!	!LO:TX:a:i:t=rit.	!	!	!	!
2F#/	.	4r	.	.	.	8cc#\	.	viens	.
.	.	.	.	.	8d#/	4.ryy	-tny	se-	.
.	4FF#\	4d#/	.	.	8b\	.	we	-cher	.
.	.	.	.	.	8a/	.	łzach	mes	.
!!LO:LB:g=original	!	!	!	!	!	!	!	!	!
=28	=28	=28	=28	=28	=28	=28	=28	=28	=28
2.G#/	2.C#\	2.e/	(8c#\L	.	8.g#/L	N[2.g#\	sto-	pleurs”	.
.	.	.	8B#X\J	.	.	.	.	.	.
.	.	.	.	.	16f#/Jk	.	.	.	.
.	.	.	4Bn\	.	[2g#/	.	-ję	.	.
.	.	.	4A#X\)	.	.	.	.	.	.
*	*	*v	*v	*	*	*	*	*	*
*	*	*	*	*v	*v	*	*	*
*clefG2	*	*	*	*	*	*	*
=29	=29	=29	=29	=29	=29	=29	=29
*	*	*^	*	*	*	*	*
*	*	*	*^	*	*	*	*	*
2g#/	2.c#\	8.ee/L	(8cc#\L	4ryy	.	4g#/_	.	.	.
.	.	.	8b#X\J	.	.	.	.	.	.
.	.	[16ee/Jk	.	.	.	.	.	.	.
!	!	!LO:TX:b:i:t=rit.	!	!	!	!	!	!	!
.	.	2gg#;/	4bn\)	2ee\]	.	8g#/N]	.	.	.
.	.	.	.	.	.	8r	.	.	.
[<4e^<;/	.	.	4a#X;\	.	.	4r	.	.	.
*v	*v	*	*	*	*	*	*	*	*
*	*v	*v	*v	*	*	*	*	*
=30	=30	=30	=30	=30	=30	=30
2.e/_	2.r	.	2.r	.	.	.
!!LO:LB:g=original	!	!	!	!	!	!
=31	=31	=31	=31	=31	=31	=31
*^	*	*	*	*	*	*
!	!	!LO:TX:a:i:t=a tempo	!	!LO:TX:a:i:t=a tempo	!	!	!
N(2.e/]	(8e\L	2.g#/	pp	8.g#/	Wę-	Le	.
.	8d#\J	.	.	.	.	.	.
.	.	.	.	16g#/	-dro-	so-	.
.	4dn\	.	.	4.b\	-wa-	-leil	.
.	4c#\)	.	.	.	.	.	.
.	.	.	.	8g#/	-ło	em-	.
*v	*v	*	*	*	*	*	*
*clefF4	*	*	*	*	*	*
=32	=32	=32	=32	=32	=32	=32
*	*^	*	*	*	*	*
(<8cn\L	4f#/	8e\LN)	.	8f#/	so-	-plit	.
N(8B\J)	.	8d#\J	.	8f#/	-bie	la	.
(4E\	2e/ 2g#	4.B\N)	.	4.g#/	słon-	vou-	.
4D#\)	.	.	.	.	.	.	.
.	.	8B#X\	.	8g#/	-ko	-te	.
=33	=33	=33	=33	=33	=33	=33	=33
*	*	*	*	*^	*	*	*
*	*	*	*	*Xtuplet	*tuplet	*	*	*
!	!	!	!	!LO:TUP:a:problem:klamra łukowa	!	!	!	!
(4C#/	2e/ [2g#	4c#\	.	12g#/L	12g#\	U-	De	.
.	.	.	.	12f#/J	12f#\	.	ses	.
!	!	!	!	!	!LO:TX:t=P:problem: skreślenie ołókiem 12e\ i dopisana nuta 12g#/	!	!	!
.	.	.	.	12e/	12e\	-śmiech-	flots	.
4.GG#/	.	[2Bn\	.	(4.b\	2ryy	-nię-	d'or	.
.	[4d#/ 4g#]	.	.	.	.	.	.	.
8AA/)	.	.	.	8g#/)	.	-tę	.	.
*	*	*	*	*v	*v	*	*	*
!!LO:LB:g=original	!	!	!	!	!	!	!
=34	=34	=34	=34	=34	=34	=34	=34
!	!	!LO:TX:t=P:problem: ligatura w t. 33 od góry a w t. 34 od dołu	!	!LO:TUP:a:problem:klamra łukowa	!	!	!
4BB/	4f#/	8B\L] 8d#]	.	12f#/L	ja-	qu'il	.
.	.	.	.	12e/J	.	.	.
.	.	8A\J 8c#	.	.	.	.	.
.	.	.	.	12f#/	-sne	va	.
[4E\	[4G#/ [>4B [4g#	2ryy	.	8g#/L	zło-	se-	.
.	.	.	.	8a/J	.	.	.
8E\]	8G#/] 8B] 8g#]	.	.	8b\	-te	-mant	.
8r	8r	.	.	8r	.	.	.
*	*v	*v	*	*	*	*	*
=35	=35	=35	=35	=35	=35	=35
2.G#\ 2.B	2.e/ 2.b	.	8b\	Szło	Il	.
.	.	.	8b\	nad	che-	.
.	.	.	4.ee\	ga-	-mine	.
.	.	.	8ee\	-jem	et	.
=36	=36	=36	=36	=36	=36	=36
*	*^	*	*	*	*	*
!	!	!	!	!LO:TX:t=P:problem: zakreślone ołówkiem	!	!	!
4G#\	4dn/ 4f# 4b#X	4ryy	.	8ddn\	szło	dans	.
.	.	.	.	8dd\	nad	sa	.
2A\	2c#/ 2cc#	4f#\	.	4.cc#\	łą-	rou-	.
.	.	4e#X\	.	.	.	.	.
.	.	.	.	8cc#\	-ką	-te	.
!!LO:PB:g=original	!	!	!	!	!	!	!
=37	=37	=37	=37	=37	=37	=37	=37
2C#\ 2G#	(4cc#/	2en\	.	8cc#\	Na-	Ren-	.
.	.	.	.	8dd#X\	-pot-	-contre	.
.	4g#/	.	.	8b\	-ka-	un	.
.	.	.	.	8b\	-ło	en-	.
[4D#\	4c#/) [<4f#	4ryy	.	8.a/	w łzach	-fant	.
.	.	.	.	16a/	sie-	pleu-	.
=38	=38	=38	=38	=38	=38	=38	=38
*	*	*	*	*^	*	*	*
*tuplet	*	*tuplet	*	*	*	*	*	*
!LO:TUP:a:problem:klamra łukowa	!	!LO:TUP:b:problem:klamra łukowa	!	!	!	!	!	!
12D#/L]	(2a/	[4B#X\ 4f#_	.	2b#X/	2b#\	-ro-	-rant:	.
N[12GG#/	.	.	.	.	.	.	.	.
[12D#/J	.	.	.	.	.	.	.	.
4GG#/N_ 4D#_ [4G#	.	12B#\L] 12f#]	.	.	.	.	.	.
.	.	N[12B#\	.	.	.	.	.	.
.	.	[12d#X\J	.	.	.	.	.	.
4GG#/] 4D#] 4G#]	8B#/N]) 8d#] 8g#	4ryy	.	4g#/	4r	-tę	.	.
.	8r	.	.	.	.	.	.	.
*	*	*	*	*v	*v	*	*	*
=39	=39	=39	=39	=39	=39	=39	=39
!	!LO:TX:b:i:t=espress.	!	!	!	!	!	!
2BB\ 2F#	(8bn/L	2dn\	.	2.r	.	.	.
.	8cc#/	.	.	.	.	.	.
.	8a/)	.	.	.	.	.	.
.	(8a/	.	.	.	.	.	.
[4C#/	8gn/)	4B\ 4e	.	.	.	.	.
.	([8g/J	.	.	.	.	.	.
!!LO:LB:g=original	!	!	!	!	!	!	!
=40	=40	=40	=40	=40	=40	=40	=40
12C#/L]	2.a#X/)	[4A#X\ 4g_	.	4r	.	.	.
N[12FF#/	.	.	.	.	.	.	.
[12C#/J	.	.	.	.	.	.	.
!	!	!LO:TUP:a	!	!	!	!	!
2FF#/N_ 2C#_> [2F#	.	12A#\L] 12g]	.	4r	.	.	.
.	.	N[12A#\	.	.	.	.	.
.	.	[12c#\J	.	.	.	.	.
.	.	4A#\N] 4c#] 4f#	.	8.f#/	Tak	„Gai	.
.	.	.	.	16f#/	we-	so-	.
*	*v	*v	*	*	*	*	*
=41	=41	=41	=41	=41	=41	=41
2.FF#/_ 2.C#_> 2.F#_	8r	.	4ff#\	-so-	-leil	.
.	4An/ 4c# 4an	pp	.	.	.	.
.	.	.	4ff#\	-ło	se-	.
.	4A/ 4c# 4a	.	.	.	.	.
.	.	.	8ee\	świe-	-che	.
.	[8A/ [>8c# [8a	.	8ee\	-cisz	mes	.
=42	=42	=42	=42	=42	=42	=42
*	*^	*	*	*	*	*
4FF#/_ 4C#_> 4F#_	8A/] 8c#] 8a]	2ryy	.	(4ff#\	świa-	pleurs	.
.	4A/ 4c# 4a	.	.	.	.	.	.
8FF#/] 8C#] 8F#]	.	.	.	4cc#\)	-tu	.	.
8r	4A/ 4c# 4a	.	.	.	.	.	.
4r	.	8.e^\L	.	4r	.	.	.
.	8r	.	.	.	.	.	.
!	!LO:TX:b:i:t=espr.	!	!	!	!	!	!
.	.	16e\Jk	.	.	.	.	.
*	*v	*v	*	*	*	*	*
!!LO:LB:g=original	!	!	!	!	!	!
=43	=43	=43	=43	=43	=43	=43
4r	[>2f#/	.	4r	.	.	.
4r	.	.	4r	.	.	.
[4A\	4c#/ 4f#_	.	8.cc#\	Tak	gai	.
.	.	.	16cc#\	we-	so-	.
=44	=44	=44	=44	=44	=44	=44
*	*^	*	*	*	*	*
!	!	!	!	!	!	!	!LO:DY:a
4A\]	2f#/_	2B#X\	.	(<2.ddn\	-so-	-leil”	>]
8.G#\L	.	.	.	.	.	.	.
16G#\Jk	.	.	.	.	.	.	.
[4A\	(>8f#/L]	4ryy	.	.	.	.	.
.	8fn/J	.	.	.	.	.	.
=45	=45	=45	=45	=45	=45	=45	=45
4A\]	8.e/L)	4c#\	.	[4cc#\)	-ło	.	.
.	(16e/Jk	.	.	.	.	.	.
2E\	4.g#/	2c#\	.	8cc#\]	.	.	.
.	.	.	.	8r	.	.	.
.	.	.	.	4r	.	.	.
.	8e/	.	.	.	.	.	.
!!LO:LB:g=original	!	!	!	!	!	!	!
=46	=46	=46	=46	=46	=46	=46	=46
(8F#\L	4d#/	(8c#\L	.	2.r	.	.	.
8A\J)	.	8Bn\J	.	.	.	.	.
2C#/	4.e/	4A\	.	.	.	.	.
.	.	4G#\)	.	.	.	.	.
.	8c#/)	.	.	.	.	.	.
*	*clefF4	*	*	*	*	*	*
=47	=47	=47	=47	=47	=47	=47	=47
4Dn\	(8.A/L	(8G#\L	.	2.r	.	.	.
.	.	8F#\J)	.	.	.	.	.
.	16A/Jk	.	.	.	.	.	.
[2AA/	4.c#/	(4F#\	.	.	.	.	.
.	.	4E\)	.	.	.	.	.
.	8A/	.	.	.	.	.	.
=48	=48	=48	=48	=48	=48	=48	=48
4AA/]	4F#/	(8D#X\L	.	2.r	.	.	.
.	.	8C#\J)	.	.	.	.	.
[2GG#/	2G#/)	[2D#\	.	.	.	.	.
=49	=49	=49	=49	=49	=49	=49	=49
!	!LO:TX:b:i:t=smorz.	!	!	!	!	!	!
2.GG#/_	[2G#/	2.D#\_	.	2.r	.	.	.
.	(8G#/L]	.	.	.	.	.	.
.	(8F#/J)	.	.	.	.	.	.
=50	=50	=50	=50	=50	=50	=50	=50
2.GG#;/]	2.G#;/)	2.D#\]	.	2.r	.	.	.
*	*v	*v	*	*	*	*	*
==	==	==	==	==	==	==
*-	*-	*-	*-	*-	*-	*-
!!!system-decoration: s1{(s2,s3)}
!!!RDF**kern: > = above
!!!RDF**kern: < = below
!!!RDF**kern: N = linked
!!!ENC: Andrzej Gręziak
!!!END: 2023-10-23
!!!EED: Jan Barakat
!!!EEV: 2023-11-13
